X: 1
T: Gan Ainm
M: 3/4
L: 1/8
R: waltz
K: Dmaj
|: F2 (FA) D>F|G2 (GB) E>d|c2 (ce) A>c|d2 (ef) A>G|
F2 (FA) D>F|G2 (GB) E>d|c2 (cA) B>c| d2 d4 :|
|: f2 (fe) d>B|A2 (AF) D>F|G2 (GE) ^C>E|A2 (AF) A,2|
f2 (fe) d>B|A2 (AF) D>F|G2 (GE) ^C>E|D2 D4 :|
|: f2 (fd) f>a|g2 (gf) e>d|c2 (cA) c>g|f2 (fe) dA,|
f2 (fd) f>a|g2 (gf) e>d|c2 (cA) B>c|d2 d4:|
|: F2 (FD) FA|G2 (GF) E>E|G2 (GE) G>B| (BA) (AG) FD|
F2 (FD) FA|G2 (GF) E>F|G2 (GE) ^C>E|D2 D4 :|
